functions/app/src/@static/media/linkedIn.svg

<?xml version="1.0" encoding="UTF-8"?>
<svg viewBox="0 0 72 72" version="1.1" xmlns="http://www.w3.org/2000/svg" xmlns:xlink="http://www.w3.org/1999/xlink">
  <!-- Generator: Sketch 49.2 (51160) - http://www.bohemiancoding.com/sketch -->
  <title>Linkedin</title>
  <desc>Created with Sketch.</desc>
  <defs></defs>
  <g id="Page-1" stroke="none" stroke-width="1" fill="none" fill-rule="evenodd">
    <g id="Social-Icons---Squared" transform="translate(-376.000000, -267.000000)">
      <g id="Linkedin" transform="translate(376.000000, 267.000000)">
        <polygon id="Square" fill="#007EBB" points="0 72 72 72 72 0 0 0"></polygon>
        <path
          d="M62,62 L51.315625,62 L51.315625,43.8021149 C51.315625,38.8127542 49.4197917,36.0245323 45.4707031,36.0245323 C41.1746094,36.0245323 38.9300781,38.9261103 38.9300781,43.8021149 L38.9300781,62 L28.6333333,62 L28.6333333,27.3333333 L38.9300781,27.3333333 L38.9300781,32.0029283 C38.9300781,32.0029283 42.0260417,26.2742151 49.3825521,26.2742151 C56.7356771,26.2742151 62,30.7644705 62,40.051212 L62,62 Z M16.349349,22.7940133 C12.8420573,22.7940133 10,19.9296567 10,16.3970067 C10,12.8643566 12.8420573,10 16.349349,10 C19.8566406,10 22.6970052,12.8643566 22.6970052,16.3970067 C22.6970052,19.9296567 19.8566406,22.7940133 16.349349,22.7940133 Z M11.0325521,62 L21.769401,62 L21.769401,27.3333333 L11.0325521,27.3333333 L11.0325521,62 Z"
          fill="#FFFFFF"></path>
      </g>
    </g>
  </g>
</svg>

<?xml version="1.0" encoding="UTF-8"?>
<svg version="1.1" viewBox="0 0 72 72" xmlns="http://www.w3.org/2000/svg">
<title>Linkedin</title>
<desc>Created with Sketch.</desc>
<g fill="none" fill-rule="evenodd">
<g transform="translate(-376 -267)">
<g transform="translate(376 267)">
<path d="m8 72h56c4.4183 0 8-3.5817 8-8v-56c0-4.4183-3.5817-8-8-8h-56c-4.4183 8.1162e-16 -8 3.5817-8 8v56c5.4108e-16 4.4183 3.5817 8 8 8z" fill="#007EBB"/>
<path d="m62 62h-10.684v-18.198c0-4.9894-1.8958-7.7776-5.8449-7.7776-4.2961 0-6.5406 2.9016-6.5406 7.7776v18.198h-10.297v-34.667h10.297v4.6696s3.096-5.7287 10.452-5.7287c7.3531 0 12.617 4.4903 12.617 13.777v21.949zm-45.651-39.206c-3.5073 0-6.3493-2.8644-6.3493-6.397 0-3.5327 2.8421-6.397 6.3493-6.397 3.5073 0 6.3477 2.8644 6.3477 6.397 0 3.5326-2.8404 6.397-6.3477 6.397zm-5.3168 39.206h10.737v-34.667h-10.737v34.667z" fill="#fff"/>
</g>
</g>
</g>
</svg>
